tools/download-figma-icons/icons/outlined-large/thumbs-down.svg

<svg width="64" height="64" viewBox="0 0 64 64" fill="none" xmlns="http://www.w3.org/2000/svg"><path fill-rule="evenodd" clip-rule="evenodd" d="M58.5 33h-18a1.5 1.5 0 0 1 0-3h15c1.379 0 2.5-1.121 2.5-2.5S56.879 25 55.5 25h-15a1.5 1.5 0 0 1 0-3h12c1.379 0 2.5-1.121 2.5-2.5S53.879 17 52.5 17h-12a1.5 1.5 0 0 1 0-3h9c1.379 0 2.5-1.121 2.5-2.5S50.879 9 49.5 9H17v26.058c11.771.826 16 11.362 16 20.442 0 1.3.632 3.5 3 3.5 2.062 0 3-1.814 3-3.5v-16a1.5 1.5 0 0 1 1.5-1.5h18c1.379 0 2.5-1.121 2.5-2.5S59.879 33 58.5 33ZM14 7.5c0-.827-.673-1.5-1.5-1.5h-8C3.673 6 3 6.673 3 7.5v29c0 .827.673 1.5 1.5 1.5h8c.827 0 1.5-.673 1.5-1.5v-29Zm50 28c0 3.032-2.468 5.5-5.5 5.5H42v14.5c0 3.151-2.103 6.5-6 6.5-3.939 0-6-3.27-6-6.5 0-8.129-3.536-16.771-13.297-17.436C16.064 39.773 14.429 41 12.5 41h-8A4.505 4.505 0 0 1 0 36.5v-29C0 5.019 2.019 3 4.5 3h8c1.953 0 3.603 1.258 4.224 3H49.5c3.032 0 5.5 2.468 5.5 5.5a5.45 5.45 0 0 1-.766 2.785A5.506 5.506 0 0 1 58 19.5a5.45 5.45 0 0 1-.766 2.785A5.506 5.506 0 0 1 61 27.5a5.45 5.45 0 0 1-.766 2.785A5.506 5.506 0 0 1 64 35.5Z" fill="currentColor"/></svg>

<svg width="64" height="64" viewBox="0 0 64 64" fill="none" xmlns="http://www.w3.org/2000/svg">
<path fill-rule="evenodd" clip-rule="evenodd" d="M58.5 33H55.5H40.922H40.5C39.672 33 39 32.328 39 31.5C39 30.672 39.672 30 40.5 30H40.922H55.5C56.879 30 58 28.879 58 27.5C58 26.121 56.879 25 55.5 25H52.5H43.816H40.5C39.672 25 39 24.328 39 23.5C39 22.672 39.672 22 40.5 22H43.816H52.5C53.879 22 55 20.879 55 19.5C55 18.121 53.879 17 52.5 17H49.5H43.816H40.5C39.672 17 39 16.328 39 15.5C39 14.672 39.672 14 40.5 14H43.816H49.5C50.879 14 52 12.879 52 11.5C52 10.121 50.879 9 49.5 9H39.545H37.5H17V35.058C28.771 35.884 33 46.42 33 55.5C33 56.8 33.632 59 36 59C38.062 59 39 57.186 39 55.5V39.5C39 38.672 39.672 38 40.5 38H58.5C59.879 38 61 36.879 61 35.5C61 34.121 59.879 33 58.5 33ZM14 7.5C14 6.673 13.327 6 12.5 6H4.5C3.673 6 3 6.673 3 7.5V36.5C3 37.327 3.673 38 4.5 38H12.5C13.327 38 14 37.327 14 36.5V7.5ZM64 35.5C64 38.532 61.532 41 58.5 41H42V55.5C42 58.651 39.897 62 36 62C32.061 62 30 58.73 30 55.5C30 47.371 26.464 38.729 16.703 38.064C16.064 39.773 14.429 41 12.5 41H4.5C2.019 41 0 38.981 0 36.5V7.5C0 5.019 2.019 3 4.5 3H12.5C14.453 3 16.103 4.258 16.724 6H37.5H39.545H49.5C52.532 6 55 8.468 55 11.5C55 12.517 54.718 13.467 54.234 14.285C56.419 15.014 58 17.074 58 19.5C58 20.517 57.718 21.467 57.234 22.285C59.419 23.014 61 25.074 61 27.5C61 28.517 60.718 29.467 60.234 30.285C62.419 31.014 64 33.074 64 35.5Z" fill="black"/>
</svg>
